icons/evolvere-blue-folders-flat-vivid-dark-fallback/apps/64/google-plus.svg

<?xml version="1.0" encoding="UTF-8" standalone="no"?>
<!-- Created with Inkscape (http://www.inkscape.org/) -->

<svg
   xmlns:dc="http://purl.org/dc/elements/1.1/"
   xmlns:cc="http://creativecommons.org/ns#"
   xmlns:rdf="http://www.w3.org/1999/02/22-rdf-syntax-ns#"
   xmlns:svg="http://www.w3.org/2000/svg"
   xmlns="http://www.w3.org/2000/svg"
   xmlns:sodipodi="http://sodipodi.sourceforge.net/DTD/sodipodi-0.dtd"
   xmlns:inkscape="http://www.inkscape.org/namespaces/inkscape"
   width="64"
   height="64"
   id="svg13094"
   version="1.1"
   inkscape:version="0.91+devel r"
   sodipodi:docname="google-plus.svg">
  <sodipodi:namedview
     id="base"
     pagecolor="#cbcdd6"
     bordercolor="#666666"
     borderopacity="1.0"
     inkscape:pageopacity="1"
     inkscape:pageshadow="2"
     inkscape:zoom="11.313708"
     inkscape:cx="35.460163"
     inkscape:cy="32.91435"
     inkscape:document-units="px"
     inkscape:current-layer="svg13094"
     showgrid="true"
     inkscape:snap-bbox="true"
     inkscape:bbox-paths="true"
     inkscape:bbox-nodes="true"
     inkscape:snap-bbox-edge-midpoints="true"
     inkscape:snap-bbox-midpoints="true"
     inkscape:object-paths="true"
     inkscape:snap-intersection-paths="true"
     inkscape:object-nodes="true"
     inkscape:snap-smooth-nodes="true"
     inkscape:snap-midpoints="true"
     inkscape:snap-object-midpoints="true"
     inkscape:snap-center="true"
     showguides="true"
     inkscape:guide-bbox="true"
     inkscape:window-width="1920"
     inkscape:window-height="1023"
     inkscape:window-x="-10"
     inkscape:window-y="35"
     inkscape:window-maximized="1"
     inkscape:snap-global="true"
     fit-margin-top="0"
     fit-margin-left="0"
     fit-margin-right="0"
     fit-margin-bottom="0"
     showborder="true"
     inkscape:showpageshadow="false"
     inkscape:snap-page="true">
    <inkscape:grid
       type="xygrid"
       id="grid3075"
       empspacing="5"
       visible="true"
       enabled="true"
       snapvisiblegridlinesonly="true"
       originx="1.6362304e-08px"
       originy="18px" />
  </sodipodi:namedview>
  <defs
     id="defs13096" />
  <metadata
     id="metadata13099">
    <rdf:RDF>
      <cc:Work
         rdf:about="">
        <dc:format>image/svg+xml</dc:format>
        <dc:type
           rdf:resource="http://purl.org/dc/dcmitype/StillImage" />
        <dc:title></dc:title>
      </cc:Work>
    </rdf:RDF>
  </metadata>
  <path
     inkscape:connector-curvature="0"
     style="color:#000000;fill:#d02a47;fill-opacity:1;fill-rule:nonzero;stroke:none;stroke-width:2.28571415;marker:none;visibility:visible;display:inline;overflow:visible;enable-background:accumulate"
     d="m 0,4 0,30 0,28 2,2 30,0 30,0 2,-2 L 64,34 64,4 32,4 0,4 z"
     id="path4095" />
  <path
     inkscape:connector-curvature="0"
     style="color:#000000;fill:#ff698b;fill-opacity:1;fill-rule:nonzero;stroke:none;stroke-width:2.28571415000000000;marker:none;visibility:visible;display:inline;overflow:visible;enable-background:accumulate"
     d="M 2,0 0,1 0,4 32,4 64,4 64,1 62,0 32,0 2,0 z"
     id="path4090" />
  <path
     style="fill:#ffffff;fill-opacity:0.14487634;fill-rule:nonzero"
     d="M 0,3 0,6 2,4 Z"
     id="path4298"
     inkscape:connector-curvature="0"
     sodipodi:nodetypes="cccc" />
  <path
     d="M 64,6 62,4 64,3 z"
     id="path3028"
     style="fill:#1f0700;fill-opacity:0.13759861"
     inkscape:connector-curvature="0" />
  <g
     id="g3043"
     inkscape:export-filename="folder.png"
     inkscape:export-xdpi="90"
     inkscape:export-ydpi="90"
     transform="translate(-0.62500009,0.082283)" />
  <g
     id="scalable"
     transform="matrix(1.0385892,0,0,1.0385892,1214.7222,1878.8121)"
     inkscape:label="#g3701"
     style="fill:#ffffff" />
  <path
     style="fill:#ffffff;fill-opacity:0.87656528"
     d="M 48.09375 8.90625 L 48.09375 20 L 37 20 L 37 24.65625 L 48.09375 24.65625 L 48.09375 35.84375 L 52.84375 35.84375 L 52.84375 24.65625 L 64 24.65625 L 64 20 L 52.84375 20 L 52.84375 8.90625 L 48.09375 8.90625 z M 17.4375 9 C 14.974138 9.0000392 12.346467 9.2866077 9.53125 9.84375 C 6.6866496 10.488949 3.9205199 11.857357 1.28125 13.96875 C 0.82311944 14.398905 0.40318437 14.839174 0 15.28125 L 0 34 L 0 36.1875 C 2.4981935 38.788834 5.9958967 40.132581 10.5 40.1875 C 11.409058 40.187511 12.348585 40.11731 13.375 40 C 13.199036 40.469217 13.017775 41.005326 12.8125 41.5625 C 12.577876 42.090365 12.468732 42.739472 12.46875 43.53125 C 12.468732 44.8509 12.759136 45.967839 13.375 46.90625 C 13.902853 47.873991 14.513011 48.805812 15.1875 49.65625 C 13.076047 49.7149 10.415207 49.968293 7.21875 50.4375 C 4.7187664 50.869318 2.3187846 51.64869 0 52.75 L 0 58.6875 C 0.58028028 57.630106 1.2908075 56.750364 2.125 56.03125 C 3.0047437 55.327433 3.8682994 54.787475 4.71875 54.40625 C 5.5691652 54.054342 6.2495373 53.769702 6.71875 53.59375 C 8.7128615 53.00724 10.656321 52.607678 12.5625 52.34375 C 13.530217 52.25577 14.305079 52.185575 14.90625 52.15625 C 15.507421 52.12692 15.921627 52.12692 16.15625 52.15625 C 16.948004 52.156247 17.632216 52.19135 18.21875 52.25 C 21.649792 54.596029 24.168338 56.574597 25.78125 58.1875 C 27.270905 59.849046 28.058173 61.779327 28.09375 64 L 32 64 L 33.65625 64 C 33.930717 62.920418 34.093741 61.80693 34.09375 60.65625 C 34.03504 57.577073 33.311875 55.062398 31.875 53.15625 C 30.350024 51.279422 28.554677 49.585499 26.53125 48.03125 L 23.28125 45.5 C 22.812002 45.060123 22.342273 44.555264 21.84375 43.96875 C 21.257218 43.352922 20.968734 42.563421 20.96875 41.625 C 20.968734 40.65727 21.257218 39.826896 21.84375 39.09375 C 22.342273 38.389953 22.882199 37.744698 23.46875 37.1875 C 24.49511 36.366405 25.465871 35.57305 26.375 34.78125 C 27.196084 33.989478 27.954315 33.12593 28.6875 32.1875 C 30.183052 30.252041 30.972574 27.663319 31.03125 24.4375 C 31.031213 22.678002 30.816766 21.132175 30.40625 19.8125 C 29.907691 18.492886 29.332602 17.342774 28.6875 16.375 C 28.012956 15.348644 27.328764 14.485097 26.625 13.78125 C 25.891818 13.106803 25.242728 12.601942 24.65625 12.25 L 30.25 12.25 L 36 9 L 17.4375 9 z M 11.75 12 C 13.656141 12.05868 15.346203 12.598646 16.8125 13.625 C 18.24943 14.710078 19.401467 16.113586 20.28125 17.84375 C 22.158043 21.450809 23.124967 25.014149 23.125 28.5625 C 23.124967 29.383632 23.019674 30.422677 22.84375 31.625 C 22.550467 32.827362 21.901361 33.981322 20.875 35.125 C 19.232759 36.73791 17.182056 37.599537 14.71875 37.6875 C 12.871232 37.687514 11.218196 37.112454 9.78125 35.96875 C 8.3442846 34.825071 7.1590753 33.42349 6.25 31.78125 C 4.3731711 28.262217 3.4374823 24.88015 3.4375 21.625 C 3.3788429 19.161697 4.061116 16.931662 5.46875 14.9375 C 7.1402862 13.031384 9.2279969 12.058689 11.75 12 z "
     id="path3848" />
</svg>

<svg xmlns="http://www.w3.org/2000/svg" viewBox="0 0 64 64"><g color="#000"><path d="m0 4v30 28l2 2h30 30l2-2v-28-30h-32-32" fill="#d02a47"/><path d="m2 0l-2 1v3h32 32v-3l-2-1h-30-30" fill="#ff698b"/></g><path d="m0 3v3l2-2" fill="#fff" fill-opacity=".145"/><path d="m64 6l-2-2 2-1z" fill="#1f0700" fill-opacity=".138"/><path d="m48.09 8.906v11.09h-11.09v4.656h11.09v11.188h4.75v-11.188h11.156v-4.656h-11.156v-11.09h-4.75m-30.656.094c-2.463 0-5.091.287-7.906.844-2.845.645-5.611 2.01-8.25 4.125-.458.43-.878.87-1.281 1.313v18.719 2.188c2.498 2.601 5.996 3.945 10.5 4 .909 0 1.849-.07 2.875-.188-.176.469-.357 1.01-.563 1.563-.235.528-.344 1.177-.344 1.969 0 1.32.29 2.437.906 3.375.528.968 1.138 1.9 1.813 2.75-2.111.059-4.772.312-7.969.781-2.5.432-4.9 1.211-7.219 2.313v5.938c.58-1.057 1.291-1.937 2.125-2.656.88-.704 1.743-1.244 2.594-1.625.85-.352 1.531-.637 2-.813 1.994-.587 3.938-.986 5.844-1.25.968-.088 1.743-.158 2.344-.188.601-.029 1.015-.029 1.25 0 .792 0 1.476.035 2.063.094 3.431 2.346 5.95 4.325 7.563 5.938 1.49 1.662 2.277 3.592 2.313 5.813h3.906 1.656c.274-1.08.437-2.193.438-3.344-.059-3.079-.782-5.594-2.219-7.5-1.525-1.877-3.32-3.571-5.344-5.125l-3.25-2.531c-.469-.44-.939-.945-1.438-1.531-.587-.616-.875-1.405-.875-2.344 0-.968.288-1.798.875-2.531.499-.704 1.038-1.349 1.625-1.906 1.026-.821 1.997-1.614 2.906-2.406.821-.792 1.579-1.655 2.313-2.594 1.496-1.935 2.285-4.524 2.344-7.75 0-1.759-.214-3.305-.625-4.625-.499-1.32-1.074-2.47-1.719-3.438-.675-1.026-1.359-1.89-2.063-2.594-.733-.674-1.382-1.179-1.969-1.531h5.594l5.75-3.25h-18.563m-5.688 3c1.906.059 3.596.599 5.063 1.625 1.437 1.085 2.589 2.489 3.469 4.219 1.877 3.607 2.844 7.17 2.844 10.719 0 .821-.105 1.86-.281 3.063-.293 1.202-.942 2.356-1.969 3.5-1.642 1.613-3.693 2.475-6.156 2.563-1.848 0-3.501-.575-4.938-1.719-1.437-1.144-2.622-2.545-3.531-4.188-1.877-3.519-2.813-6.901-2.813-10.156-.059-2.463.624-4.693 2.031-6.688 1.672-1.906 3.759-2.879 6.281-2.938" fill="#fff" fill-opacity=".877"/></svg>
